X:518
T:Marchioness Salute, The
R:Strathspey
B:The Athole Collection
M:C
L:1/8
K:F
A|F>C A,<F C<FA,<F|C>F A,<A G>G, B,<G|F>CA,>F C<FA<f|
c>FA>f A<F~F:|
f|c<A f>A c>f A<f|c>f A<a g>G B<d|c<A f>A c>fA>f|c>FA>f A<F F>f|
c<A f>A (3ccf (3Aaf|(3ccf (3Aaa g>G B<b|(3agf (3efg (3fcB (3ABd|
(3cAF DFB A<F~F||

